X:82
T:Reg and Joan's Visit
R:reel
O:20th century Cape Breton
C:Paul S. Cranford
S:May 2003
Q:333
M:C|
K:F
ag|fdcA B2 AB|cABG AFAc|dBAB GBbg|ec=Bc ageg|
fdcA B2 AB|cABG AFAc|dBAB afeg|fcag f2:|
|:fg|afeg fdce|dAce dcAF|Ec=Bc ec=Bc|1 EGce bgeg|
afeg fdce|dAce dcAF|Ec=Bc bgeg|fcag f2:|
[2EGce bgag|fdcA B2 AB|cABG AFAc|dBAB afeg|fcag f2|]
